X: 29601
T: Norrie's Carry-out
R: jig
M: 6/8
K: Amajor
FAB cdc|zFc BAE|FAB cdc|zef age|
d3 Bcd|c3 cAE|Ffe cBA|BcB AFE:|
FAc f2 (=f|f)e2 FAc|e2 e2 ^d2|d2 c2 =c2|
B3 Bcd|c3 cAE|Ffe cBA|BcB AFE|
FAc f2 (=f|f)e2 FAc|E2 F2 A2|c2 e2 g2|
B3 Bcd|c3 cAE|Ffe cBA|BcB AFE||

